X: 12855
T: Ferintosh
R: strathspey
M: 4/4
K: Dmajor
B,|A,<D D/D/D F>D D>F|G>E =C>A, C/D/E G2|A,<D D/D/D F>D D>^c|d>A F>D F/G/A d2|
A,<D D/D/D F>D D>F|G>E =C>A, C/D/E G2|f>d ^c/d/e B>G F/G/A|G>E =C>A, D2D||
g|f>d f/g/a f<d d>f|g>e =c>A c/d/e g2|f>d f/g/a f<d d>g|f>d a>f b>g a2|
f>d f/g/a f<d d>f|g>e =c>A c/d/e g2|f>d ^c/d/e B>G F/G/A|G>E =C>A, D2D||

